img/svg/ben-item3.svg

<svg width="80" height="80" viewBox="0 0 80 80" fill="none" xmlns="http://www.w3.org/2000/svg">
<circle cx="40.001" cy="39.9998" r="40" fill="#0079FD"/>
<path fill-rule="evenodd" clip-rule="evenodd" d="M35.001 48.333L40.001 43.433C39.351 43.3664 38.8676 43.333 38.3343 43.333C33.8843 43.333 25.001 45.5664 25.001 49.9997V53.333H40.001L35.001 48.333ZM38.3343 39.9997C42.0176 39.9997 45.001 37.0164 45.001 33.333C45.001 29.6497 42.0176 26.6664 38.3343 26.6664C34.651 26.6664 31.6676 29.6497 31.6676 33.333C31.6676 37.0164 34.651 39.9997 38.3343 39.9997Z" fill="white"/>
<path fill-rule="evenodd" clip-rule="evenodd" d="M45.7843 54.1663L40.001 48.333L42.3343 45.983L45.7843 49.4497L54.3343 40.833L56.6676 43.183L45.7843 54.1663Z" fill="white"/>
</svg>

<svg width="80" height="80" viewBox="0 0 80 80" fill="none" xmlns="http://www.w3.org/2000/svg"><circle cx="40.001" cy="40" r="40" fill="#0079FD"/><path fill-rule="evenodd" clip-rule="evenodd" d="M35.001 48.333l5-4.9c-.65-.067-1.133-.1-1.667-.1-4.45 0-13.333 2.233-13.333 6.667v3.333h15l-5-5zM38.334 40a6.665 6.665 0 006.667-6.667 6.665 6.665 0 00-6.667-6.667 6.665 6.665 0 00-6.666 6.667A6.665 6.665 0 0038.334 40zm7.45 14.166l-5.783-5.833 2.333-2.35 3.45 3.467 8.55-8.617 2.334 2.35-10.884 10.983z" fill="#fff"/></svg>
